X:361
T: ICH GING WOL HIN
N: E0203F
O: Europa, Mitteleuropa, Deutschland, Frankfurt a.d. Oder, Seelow
R: erzaehlendes Volks - Lied, Todes - Ahnung; betrogene Liebe
M: 3/4
L: 1/16
K: F
C2 | F2F2A4c4 | B2d2c2B2A2
C2 | F2G2A4c4 | G2G2F4z2
C2 | F2G2A4c2A2 | G2C2G2C2z2
C2 | F2G2A4c4 | G2GGF4z2

